src/icons/svgs/24/arrow-down.svg

<svg width="24" height="24" viewBox="0 0 24 24" fill="none" xmlns="http://www.w3.org/2000/svg">
<path d="M11.9998 2.5C11.4477 2.5 10.9993 2.95727 10.9993 3.52035L10.9993 17.9349L5.72399 12.2955C5.34246 11.8865 4.70683 11.8719 4.30972 12.261C3.90995 12.6501 3.89561 13.2954 4.27584 13.7034L11.2763 21.1828C11.4623 21.3858 11.7248 21.5 11.9998 21.5C12.2749 21.5 12.5332 21.3858 12.7249 21.184L19.7254 13.7045C20.1041 13.2984 20.09 12.6525 19.6899 12.2615C19.2941 11.8724 18.6586 11.887 18.2757 12.2961L13.0003 17.9354V3.48223C12.9999 2.92072 12.5499 2.5 11.9998 2.5Z" fill="black"/>
</svg>

<svg width="24" height="24" viewBox="0 0 24 24" xmlns="http://www.w3.org/2000/svg">
    <path d="M12 2.5c-.552 0-1 .457-1 1.02v14.415l-5.276-5.64a.985.985 0 0 0-1.414-.034c-.4.39-.414 1.034-.034 1.442l7 7.48A.98.98 0 0 0 12 21.5a.996.996 0 0 0 .725-.316l7-7.48a1.038 1.038 0 0 0-.035-1.443.985.985 0 0 0-1.414.035L13 17.936V3.481a.981.981 0 0 0-1-.982z"/>
</svg>
